SVG_Azure_Grouped/Management/Subscription.svg

<?xml version="1.0" encoding="UTF-8" standalone="no"?>
<!-- Generated by Microsoft Visio, SVG Export Subscription.svg Page-1 -->

<svg
   xmlns:dc="http://purl.org/dc/elements/1.1/"
   xmlns:cc="http://creativecommons.org/ns#"
   xmlns:rdf="http://www.w3.org/1999/02/22-rdf-syntax-ns#"
   xmlns:svg="http://www.w3.org/2000/svg"
   xmlns="http://www.w3.org/2000/svg"
   xmlns:sodipodi="http://sodipodi.sourceforge.net/DTD/sodipodi-0.dtd"
   xmlns:inkscape="http://www.inkscape.org/namespaces/inkscape"
   width="0.4724367in"
   height="0.78745633in"
   viewBox="0 0 34.015415 56.697167"
   xml:space="preserve"
   class="st3"
   version="1.1"
   id="svg34"
   sodipodi:docname="Subscription.svg"
   style="font-size:12px;overflow:visible;color-interpolation-filters:sRGB;fill:none;fill-rule:evenodd;stroke-linecap:square;stroke-miterlimit:3"
   inkscape:version="0.92.5 (2060ec1f9f, 2020-04-08)"><metadata
   id="metadata38"><rdf:RDF><cc:Work
       rdf:about=""><dc:format>image/svg+xml</dc:format><dc:type
         rdf:resource="http://purl.org/dc/dcmitype/StillImage" /></cc:Work></rdf:RDF></metadata><sodipodi:namedview
   pagecolor="#ffffff"
   bordercolor="#666666"
   borderopacity="1"
   objecttolerance="10"
   gridtolerance="10"
   guidetolerance="10"
   inkscape:pageopacity="0"
   inkscape:pageshadow="2"
   inkscape:window-width="640"
   inkscape:window-height="480"
   id="namedview36"
   showgrid="false"
   inkscape:zoom="1.4193119"
   inkscape:cx="22.673468"
   inkscape:cy="37.787623"
   inkscape:window-x="0"
   inkscape:window-y="0"
   inkscape:window-maximized="0"
   inkscape:current-layer="svg34" />
	<style
   type="text/css"
   id="style2">
	<![CDATA[
		.st1 {fill:url(#grad6-6);stroke:none;stroke-linecap:butt;stroke-width:34}
		.st2 {fill:#ff9300;fill-opacity:0.75;stroke:none;stroke-linecap:butt;stroke-width:34}
		.st3 {fill:none;fill-rule:evenodd;font-size:12px;overflow:visible;stroke-linecap:square;stroke-miterlimit:3}
	]]>
	</style>

	<defs
   id="Patterns_And_Gradients">
		<radialGradient
   id="grad6-6"
   cx="43.919335"
   cy="52.681276"
   r="61.481995"
   gradientTransform="scale(0.77456625,1.2910452)"
   fx="43.919335"
   fy="52.681276"
   gradientUnits="userSpaceOnUse">
			<stop
   offset="0.265"
   stop-color="#ffd70f"
   stop-opacity="1"
   id="stop4" />
			<stop
   offset="0.485"
   stop-color="#ffcb12"
   stop-opacity="1"
   id="stop6" />
			<stop
   offset="0.885"
   stop-color="#feac19"
   stop-opacity="1"
   id="stop8" />
			<stop
   offset="1"
   stop-color="#fea11b"
   stop-opacity="1"
   id="stop10" />
		</radialGradient>
	</defs>
	<g
   id="g32"
   transform="translate(-34.003126,-33.998206)">
		<title
   id="title14">Page-1</title>
		<g
   id="group12022-1"
   transform="translate(34,-34.0157)">
			<title
   id="title16">Subscription.12022</title>
			<g
   id="group12023-2">
				<title
   id="title18">Sheet.12023</title>
				<g
   id="shape12024-3">
					<title
   id="title20">Sheet.12024</title>
					<path
   d="m 32.19,90.39 a 6.27102,6.53178 -180 0 0 0,-9.22 L 21.41,69.92 a 6.22869,6.48769 -180 0 0 -8.82,0 L 1.83,81.17 a 6.27405,6.53493 -180 0 0 0,9.22 l 8.96,9.36 a 1.75673,1.82978 0 0 1 0.51,1.29 v 17.4 a 2.14074,2.22975 -180 0 0 0.62,1.57 l 4.09,4.27 a 1.41506,1.4739 -180 0 0 2,0 l 3.96,-4.14 v -0.04 l 2.33,-2.43 a 0.819406,0.853478 -180 0 0 0,-1.20306 L 22.62,114.71 a 0.907091,0.94481 0 0 1 0,-1.31329 L 24.3,111.64 a 0.819406,0.853478 -180 0 0 0,-1.20306 L 22.62,108.7 a 0.907091,0.94481 0 0 1 0,-1.31329 L 24.31,105.63 a 0.816382,0.850329 -180 0 0 0,-1.19991 L 21.97,101.99 v -0.9 z M 17.01,72.65 a 3.55277,3.7005 0 1 1 -3.55,3.7 3.54975,3.69736 0 0 1 3.55,-3.7 z"
   class="st1"
   id="path22"
   inkscape:connector-curvature="0"
   style="fill:url(#grad6-6);stroke:none;stroke-width:34;stroke-linecap:butt" />
				</g>
				<g
   id="shape12025-7"
   transform="translate(8.38005,-5.74918)">
					<title
   id="title25">Sheet.12025</title>
					<path
   d="m 5.83,124.56 a 0.761957,0.79364 -180 0 0 1.28807,-0.60468 L 7.11,109.88 A 0.810335,0.84403 -180 0 0 6.759258,109.18084 0.76498,0.79679 -180 0 0 5.580038,109.88 L 5.58,123.95 a 0.810335,0.84403 -180 0 0 0.241891,0.60468 z M 0.96,90.67 h 15.79 a 0.95547,0.9952 0 0 1 0.95547,0.9952 L 17.71,91.85 a 0.958493,0.998349 0 0 1 -0.958493,0.998349 L 0.96,92.85 A 0.95547,0.9952 0 0 1 0.00453,91.8548 L 0,91.67 a 0.958493,0.998349 0 0 1 0.958493,-0.998349 z m 0,3.54 h 15.79 a 0.95547,0.9952 0 0 1 0.95547,0.9952 L 17.71,95.4 a 0.95547,0.9952 0 0 1 -0.95547,0.9952 L 0.96,96.39 A 0.958493,0.998349 0 0 1 0.001507,95.391651 L 0,95.21 a 0.958493,0.998349 0 0 1 0.958493,-0.998349 z"
   class="st2"
   id="path27"
   inkscape:connector-curvature="0"
   style="fill:#ff9300;fill-opacity:0.75;stroke:none;stroke-width:34;stroke-linecap:butt" />
				</g>
			</g>
		</g>
	</g>
</svg>

<?xml version="1.0" encoding="UTF-8" standalone="no"?>
<!DOCTYPE svg PUBLIC "-//W3C//DTD SVG 1.1//EN" "http://www.w3.org/Graphics/SVG/1.1/DTD/svg11.dtd">
<!-- Generated by Microsoft Visio, SVG Export Subscription.svg Page-1 -->
<svg xmlns="http://www.w3.org/2000/svg" xmlns:xlink="http://www.w3.org/1999/xlink" xmlns:ev="http://www.w3.org/2001/xml-events"
		width="1.41689in" height="1.73206in" viewBox="0 0 102.016 124.709" xml:space="preserve" color-interpolation-filters="sRGB"
		class="st3">
	<style type="text/css">
	<![CDATA[
		.st1 {fill:url(#grad6-6);stroke:none;stroke-linecap:butt;stroke-width:34}
		.st2 {fill:#ff9300;fill-opacity:0.75;stroke:none;stroke-linecap:butt;stroke-width:34}
		.st3 {fill:none;fill-rule:evenodd;font-size:12px;overflow:visible;stroke-linecap:square;stroke-miterlimit:3}
	]]>
	</style>

	<defs id="Patterns_And_Gradients">
		<radialGradient id="grad6-6" cx="1" cy="0" r="1.4">
			<stop offset="0.265" stop-color="#ffd70f" stop-opacity="1"/>
			<stop offset="0.485" stop-color="#ffcb12" stop-opacity="1"/>
			<stop offset="0.885" stop-color="#feac19" stop-opacity="1"/>
			<stop offset="1" stop-color="#fea11b" stop-opacity="1"/>
		</radialGradient>
	</defs>
	<g>
		<title>Page-1</title>
		<g id="group11743-1" transform="translate(34,-34.0157)">
			<title>Subscription.11743</title>
			<g id="group11744-2">
				<title>Sheet.11744</title>
				<g id="shape11745-3">
					<title>Sheet.11745</title>
					<path d="M32.19 90.39 A6.27102 6.53178 -180 0 0 32.19 81.17 L21.41 69.92 A6.22869 6.48769 -180 0 0 12.59 69.92
								 L1.83 81.17 A6.27405 6.53493 -180 0 0 1.83 90.39 L10.79 99.75 A1.75673 1.82978 0 0 1 11.3 101.04
								 L11.3 118.44 A2.14074 2.22975 -180 0 0 11.92 120.01 L16.01 124.28 A1.41506 1.4739 -180 0 0 18.01
								 124.28 L21.97 120.14 L21.97 120.1 L24.3 117.67 a0.819406 0.853478 -180 0 0 3.90799E-14 -1.20306
								 L22.62 114.71 a0.907091 0.94481 0 0 1 -7.10543E-15 -1.31329 L24.3 111.64 a0.819406 0.853478 -180
								 0 0 -7.10543E-14 -1.20306 L22.62 108.7 a0.907091 0.94481 0 0 1 1.06581E-14 -1.31329 L24.31 105.63
								 a0.816382 0.850329 -180 0 0 -2.4869E-14 -1.19991 L21.97 101.99 L21.97 101.09 L32.19 90.39 ZM17.01
								 72.65 A3.55277 3.7005 0 1 1 13.46 76.35 A3.54975 3.69736 0 0 1 17.01 72.65 Z" class="st1"/>
				</g>
				<g id="shape11746-7" transform="translate(8.38005,-5.74918)">
					<title>Sheet.11746</title>
					<path d="M5.83 124.56 a0.761957 0.79364 -180 0 0 1.28807 -0.604678 L7.11 109.88 a0.810335 0.84403 -180 0 0 -0.350742
								 -0.699159 a0.76498 0.79679 -180 0 0 -1.17922 0.699159 L5.58 123.95 a0.810335 0.84403 -180 0 0 0.241891
								 0.604678 ZM0.96 90.67 L16.75 90.67 a0.95547 0.9952 0 0 1 0.95547 0.9952 L17.71 91.85 a0.958493 0.998349
								 0 0 1 -0.958493 0.998349 L0.96 92.85 a0.95547 0.9952 0 0 1 -0.95547 -0.9952 L0 91.67 a0.958493 0.998349
								 0 0 1 0.958493 -0.998349 L0.96 90.67 ZM0.96 94.21 L16.75 94.21 a0.95547 0.9952 0 0 1 0.95547 0.9952
								 L17.71 95.4 a0.95547 0.9952 0 0 1 -0.95547 0.9952 L0.96 96.39 a0.958493 0.998349 0 0 1 -0.958493
								 -0.998349 L0 95.21 a0.958493 0.998349 0 0 1 0.958493 -0.998349 Z" class="st2"/>
				</g>
			</g>
		</g>
	</g>
</svg>
